assets/img/braze_icons/file-check-03.svg

<svg fill="none" height="24" viewBox="0 0 24 24" width="24" xmlns="http://www.w3.org/2000/svg"><g fill="#801ed7"><path clip-rule="evenodd" d="m13 2.01558c0-.0263 0-.03946-.0011-.06331-.0236-.49377-.4579-.92779-.9516-.95115-.0239-.001128-.0317-.001125-.0473-.00112h-3.24134c-.80494-.00001-1.46931-.000019-2.01048.0442-.5621.04592-1.0788.14449-1.56414.39178-.75265.38349-1.36457.99541-1.74806 1.74806-.24729.48534-.34586 1.00204-.39178 1.56414-.04422.54118-.04421 1.20554-.0442 2.01049v10.48263c-.00001.805-.00002 1.4693.0442 2.0105.04592.5621.14449 1.0788.39178 1.5642.38349.7526.99541 1.3645 1.74806 1.748.48534.2473 1.00204.3459 1.56414.3918.54119.0442 1.20554.0442 2.0105.0442h6.48262c.805 0 1.4693 0 2.0105-.0442.5621-.0459 1.0788-.1445 1.5642-.3918.7526-.3835 1.3645-.9954 1.748-1.748.2473-.4854.3459-1.0021.3918-1.5642.0442-.5412.0442-1.2055.0442-2.0105v-7.24136c0-.01553 0-.0233-.0011-.04712-.0233-.49383-.4574-.92811-.9512-.95167-.0239-.00114-.037-.00114-.0632-.00114h-4.4164c-.2524.00003-.4982.00006-.7063-.01694-.2286-.01868-.4984-.06275-.7698-.20105-.3763-.19174-.6823-.4977-.874-.87403-.1383-.27142-.1824-.54116-.201-.76975-.0171-.20816-.017-.45395-.017-.70633zm3.2071 12.19152c.3905-.3905.3905-1.0237 0-1.4142s-1.0237-.3905-1.4142 0l-3.7929 3.7929-1.29289-1.2929c-.39053-.3905-1.02369-.3905-1.41422 0-.39052.3905-.39052 1.0237 0 1.4142l2.00001 2c.3905.3905 1.0237.3905 1.4142 0z" fill-rule="evenodd"/><path d="m18.908 6.99999c.2936.00001.4404.00001.5606-.07372.1699-.10412.2714-.34943.2249-.54314-.033-.13715-.1287-.2328-.3202-.42409l-3.3323-3.33232c-.1913-.19149-.287-.28723-.4241-.3202-.1937-.04656-.439.05498-.5432.22482-.0737.12027-.0737.26708-.0737.5607v3.10792c0 .28002 0 .42003.0545.52698.0479.09408.1244.17057.2185.21851.107.0545.247.0545.527.0545z"/></g></svg>

<svg width="24" height="24" viewBox="0 0 24 24" fill="none" xmlns="http://www.w3.org/2000/svg">
<path fill-rule="evenodd" clip-rule="evenodd" d="M13 2.01558C13 1.98928 13 1.97612 12.9989 1.95227C12.9753 1.4585 12.541 1.02448 12.0473 1.00112C12.0234 0.999992 12.0156 0.999995 12 1H8.75866C7.95372 0.99999 7.28935 0.999981 6.74818 1.0442C6.18608 1.09012 5.66938 1.18869 5.18404 1.43598C4.43139 1.81947 3.81947 2.43139 3.43598 3.18404C3.18869 3.66938 3.09012 4.18608 3.0442 4.74818C2.99998 5.28936 2.99999 5.95372 3 6.75867V17.2413C2.99999 18.0463 2.99998 18.7106 3.0442 19.2518C3.09012 19.8139 3.18869 20.3306 3.43598 20.816C3.81947 21.5686 4.43139 22.1805 5.18404 22.564C5.66938 22.8113 6.18608 22.9099 6.74818 22.9558C7.28937 23 7.95372 23 8.75868 23H15.2413C16.0463 23 16.7106 23 17.2518 22.9558C17.8139 22.9099 18.3306 22.8113 18.816 22.564C19.5686 22.1805 20.1805 21.5686 20.564 20.816C20.8113 20.3306 20.9099 19.8139 20.9558 19.2518C21 18.7106 21 18.0463 21 17.2413V9.99994C21 9.98441 21 9.97664 20.9989 9.95282C20.9756 9.45899 20.5415 9.02471 20.0477 9.00115C20.0238 9.00001 20.0107 9.00001 19.9845 9.00001L15.5681 9.00001C15.3157 9.00004 15.0699 9.00007 14.8618 8.98307C14.6332 8.96439 14.3634 8.92032 14.092 8.78202C13.7157 8.59028 13.4097 8.28432 13.218 7.90799C13.0797 7.63657 13.0356 7.36683 13.017 7.13824C12.9999 6.93008 13 6.68429 13 6.43191L13 2.01558ZM16.2071 14.2071C16.5976 13.8166 16.5976 13.1834 16.2071 12.7929C15.8166 12.4024 15.1834 12.4024 14.7929 12.7929L11 16.5858L9.70711 15.2929C9.31658 14.9024 8.68342 14.9024 8.29289 15.2929C7.90237 15.6834 7.90237 16.3166 8.29289 16.7071L10.2929 18.7071C10.6834 19.0976 11.3166 19.0976 11.7071 18.7071L16.2071 14.2071Z" fill="#801ED7"/>
<path d="M18.908 6.99999C19.2016 7 19.3484 7 19.4686 6.92627C19.6385 6.82215 19.74 6.57684 19.6935 6.38313C19.6605 6.24598 19.5648 6.15033 19.3733 5.95904L16.041 2.62672C15.8497 2.43523 15.754 2.33949 15.6169 2.30652C15.4232 2.25996 15.1779 2.3615 15.0737 2.53134C15 2.65161 15 2.79842 15 3.09204L15 6.19996C15 6.47998 15 6.61999 15.0545 6.72694C15.1024 6.82102 15.1789 6.89751 15.273 6.94545C15.38 6.99995 15.52 6.99995 15.8 6.99995L18.908 6.99999Z" fill="#801ED7"/>
</svg>
